weasis-distributions/resources/svg/action/settings.svg

<svg width="17" height="17" viewBox="0 0 17 17" fill="none" xmlns="http://www.w3.org/2000/svg">
<g clip-path="url(#clip0_202_14)">
<path fill-rule="evenodd" clip-rule="evenodd" d="M7.26971 7.38795C6.76055 5.97505 7.07211 4.33286 8.20438 3.20059C9.39139 2.01358 11.1388 1.72856 12.595 2.34553L9.6893 5.2512L11.8106 7.37252L14.7163 4.46685C15.3333 5.92299 15.0482 7.67043 13.8612 8.85744C12.729 9.98971 11.0868 10.3013 9.67388 9.79211L3.74254 15.7235L1.33837 13.3193L7.26971 7.38795Z" fill="#6E6E6E"/>
</g>
<defs>
<clipPath id="clip0_202_14">
<rect width="16" height="16" fill="white" transform="translate(0.0983124 0.813507)"/>
</clipPath>
</defs>
</svg>

<?xml version="1.0" encoding="UTF-8"?>
<svg width="16" height="16" fill="none" version="1.1" viewBox="0 0 16 16" xmlns="http://www.w3.org/2000/svg">
 <g transform="matrix(1.0223 0 0 1.0223 -.36823 -1.0743)" clip-path="url(#clip0_202_14)">
  <path d="m7.2697 7.388c-0.50916-1.4129-0.1976-3.0551 0.93467-4.1874 1.187-1.187 2.9344-1.472 4.3906-0.85506l-2.9057 2.9057 2.1213 2.1213 2.9057-2.9057c0.617 1.4561 0.3319 3.2036-0.8551 4.3906-1.1322 1.1323-2.7744 1.4439-4.1873 0.93467l-5.9313 5.9314-2.4042-2.4042z" clip-rule="evenodd" fill="#6e6e6e" fill-rule="evenodd"/>
 </g>
 <defs>
  <clipPath id="clip0_202_14">
   <rect transform="translate(.098312 .81351)" width="16" height="16" fill="#fff"/>
  </clipPath>
 </defs>
</svg>
